img/header-btn.svg

<svg width="22" height="22" viewBox="0 0 22 22" fill="none" xmlns="http://www.w3.org/2000/svg">
<path d="M18.4669 7.69398L18.7129 7.12798C19.1454 6.1267 19.9375 5.3239 20.9329 4.87798L21.6919 4.53898C21.784 4.49662 21.862 4.42875 21.9167 4.34341C21.9713 4.25807 22.0004 4.15884 22.0004 4.05748C22.0004 3.95613 21.9713 3.8569 21.9167 3.77155C21.862 3.68621 21.784 3.61834 21.6919 3.57598L20.9749 3.25698C19.9545 2.79836 19.1488 1.96586 18.7239 0.930982L18.4699 0.319982C18.4327 0.225336 18.3679 0.14408 18.2839 0.0868075C18.1999 0.0295345 18.1006 -0.00109863 17.9989 -0.00109863C17.8972 -0.00109863 17.7979 0.0295345 17.7139 0.0868075C17.6299 0.14408 17.5651 0.225336 17.5279 0.319982L17.2749 0.929982C16.8504 1.96506 16.0451 2.79792 15.0249 3.25698L14.3069 3.57698C14.2151 3.61946 14.1374 3.68732 14.0829 3.77256C14.0284 3.85779 13.9995 3.95683 13.9995 4.05798C13.9995 4.15914 14.0284 4.25818 14.0829 4.34341C14.1374 4.42864 14.2151 4.4965 14.3069 4.53898L15.0669 4.87698C16.0621 5.32335 16.8538 6.12651 17.2859 7.12798L17.5319 7.69398C17.7119 8.10798 18.2859 8.10798 18.4669 7.69398ZM12.3859 5.33898C12.6599 5.77232 13.0346 6.09265 13.5099 6.29998L14.0749 6.54698C14.4549 6.71298 14.7629 6.94565 14.9989 7.24498V12C14.9989 13.3261 14.4721 14.5978 13.5344 15.5355C12.5967 16.4732 11.325 17 9.99889 17C8.67281 17 7.40104 16.4732 6.46336 15.5355C5.52568 14.5978 4.99889 13.3261 4.99889 12V5.99998C4.99889 5.07185 5.25723 4.16203 5.74498 3.37239C6.23273 2.58275 6.93065 1.94445 7.76059 1.52896C8.59053 1.11347 9.51974 0.937189 10.4442 1.01985C11.3686 1.10251 12.2518 1.44084 12.9949 1.99698C12.7549 2.17698 12.5516 2.39832 12.3849 2.66098C12.1302 3.06089 11.9965 3.52587 11.9999 3.99998C11.9999 4.48398 12.1279 4.93032 12.3859 5.33898ZM0.191895 13.96L2.15389 13.568C2.51829 15.3804 3.49892 17.0108 4.9292 18.1822C6.35948 19.3535 8.15118 19.9936 9.9999 19.9936C11.8486 19.9936 13.6403 19.3535 15.0706 18.1822C16.5009 17.0108 17.4815 15.3804 17.8459 13.568L19.8079 13.96C18.8959 18.545 14.8519 22 9.9999 22C5.14789 22 1.10389 18.545 0.191895 13.961" fill="white"/>
</svg>

<svg xmlns="http://www.w3.org/2000/svg" width="22" height="22" fill="none"><path fill="#fff" d="m18.467 7.694.246-.566a4.36 4.36 0 0 1 2.22-2.25l.759-.339a.53.53 0 0 0 0-.963l-.717-.319A4.37 4.37 0 0 1 18.724.931L18.47.32a.506.506 0 0 0-.942 0l-.253.61a4.37 4.37 0 0 1-2.25 2.327l-.718.32a.53.53 0 0 0 0 .962l.76.338a4.36 4.36 0 0 1 2.219 2.251l.246.566c.18.414.754.414.935 0m-6.081-2.355q.411.65 1.124.961l.565.247q.57.25.924.698V12a5 5 0 0 1-10 0V6a5 5 0 0 1 7.996-4.003q-.36.27-.61.664A2.46 2.46 0 0 0 12 4q0 .726.386 1.339M.192 13.96l1.962-.392a8.003 8.003 0 0 0 15.692 0l1.962.392C18.896 18.545 14.852 22 10 22S1.104 18.545.192 13.961"/></svg>
